public/formular-icons/greece/lower-theta.svg

<svg style="vertical-align:-.023ex" xmlns="http://www.w3.org/2000/svg" width="1.061ex" height="1.618ex" viewBox="0 -705 469 715" xmlns:xlink="http://www.w3.org/1999/xlink"><defs><path id="a" d="M35 200q0 102 39 215t106 195 139 94h8q7 0 12 1 54-4 84-49 39-60 39-161 0-115-45-234T302 66 168-10h-7q-36 0-62 20T60 63t-19 67-6 70Zm348 366q0 102-53 102-36 0-70-45t-56-102-34-100-13-50q49-1 97-1l97 1q1 1 8 33t16 80 8 82ZM113 132q0-106 53-106 15 0 32 10t41 38 48 87 48 146l5 17H145q0-3-9-38t-16-78-7-76Z"/></defs><g stroke="currentColor" fill="currentColor" stroke-width="0"><use data-c="1D703" xlink:href="#a" transform="scale(1 -1)"/></g></svg>

<svg style="vertical-align: -0.023ex" xmlns="http://www.w3.org/2000/svg" width="1.061ex" height="1.618ex" role="img" focusable="false" viewBox="0 -705 469 715" xmlns:xlink="http://www.w3.org/1999/xlink"><defs><path id="MJX-99-TEX-I-1D703" d="M35 200Q35 302 74 415T180 610T319 704Q320 704 327 704T339 705Q393 701 423 656Q462 596 462 495Q462 380 417 261T302 66T168 -10H161Q125 -10 99 10T60 63T41 130T35 200ZM383 566Q383 668 330 668Q294 668 260 623T204 521T170 421T157 371Q206 370 254 370L351 371Q352 372 359 404T375 484T383 566ZM113 132Q113 26 166 26Q181 26 198 36T239 74T287 161T335 307L340 324H145Q145 321 136 286T120 208T113 132Z"></path></defs><g stroke="currentColor" fill="currentColor" stroke-width="0" transform="scale(1,-1)"><g data-mml-node="math"><g data-mml-node="mi"><use data-c="1D703" xlink:href="#MJX-99-TEX-I-1D703"></use></g></g></g></svg>
